X:1
T:At the Cross
T:Text: Isaac Watts (1674-1748); ref. Ralph E. Hudson (1843-1901) Tune: Ralph E. Hudson (1843-1901) ref. melody John H. Hewitt (1801-1890)
T:CM Refrain HUDSON www.hymnary.org/text/alas_and_did_my_savior_bleed
T:At the Cross
T:This hymn is in the public domain.  You may freely use this score for personal and congregational worship.  If you reproduce the score, please credit Hymnary.org as the source. 
T:This hymn is in the public domain.  You may freely use this score for personal and congregational worship.  If you reproduce the score, please credit Hymnary.org as the source. 
Z:This hymn is in the public domain.  You may freely use this score for personal and congregational worship.  If you reproduce the score, please credit Hymnary.org as the source.
%%score ( 1 2 ) ( 3 4 )
L:1/8
M:4/4
K:Eb
V:1 treble nm="Piano" snm="Pno."
V:2 treble 
V:3 bass nm="Piano" snm="Pno."
V:4 bass 
V:1
 E2 | [EG]3 F E2 [EG]2 | [GB]3 [FA] [EG]2 [EB]2 | [Ec]2 [EB]2 [DA]2 [EG]2 | [DF]6 | E2 | %6
w: 3~Well|might the sun in|dark- ness hide and|shut its glo- ries|in,|when|
w: 1~A-|las! and did my|Sa- vior bleed, and|did my So- vereign|die?|Would|
w: 2~Was|it for crimes that|I have done, he|groaned up- on the|tree?|A-|
 [EG]3 F E2 [EG]2 | [GB]3 [Ac] [GB]2 E2 | [CF]2 [FA]2 [EG]2 [DF]2 | E6 ||"^Refrain" EF | %11
w: Christ, the migh- ty|Ma- ker, died for|his own cre- ature's|sin.|At the|
w: he de- vote that|sa- cred head for|sin- ners such as|I?||
w: ma- zing pi- ty!|Grace un- known! And|love be- yond de-|gree!||
 [EG]2 [EG]>[EG] [EG]2 [EA][EG] | (([EG][DF])) [DF]>[^C=E] [DF]2 [DF][_EG] | %13
w: cross, at the cross where I|first _ saw the light, and the|
w: ||
w: ||
 [FA][FA][FA][FA] [FA]2 [GB]>[FA] | [EG]6 [EG][EG] | [EA]2 [EA]2 C2 | [EA][FA] | %17
w: bur- den of my heart rolled a-|way, it was|there by faith|I re-|
w: ||||
w: ||||
 [EG]2 (GF) E2 [EG]2 | [CF]2 [CF][CE] [B,D][FA] [EG]>[DF] | E6 |] %20
w: ceived my _ sight, and|now I am hap- py all the|day!|
w: |||
w: |||
V:2
 E2 | x3 E E2 x2 | x8 | x8 | x6 | E2 | x3 E E2 x2 | x6 E2 | x8 | E6 || EE | x8 | x8 | x8 | x8 | %15
 x4 C2 | x2 | x2 E2 E2 x2 | x8 | E6 |] %20
V:3
 [E,G,]2 | [E,B,]3 [E,A,] [E,G,]2 [E,B,]2 | [E,E]3 [E,B,] [E,B,]2 [G,E]2 | %3
w: |||
 [A,E]2 [G,E]2 [F,B,]2 [E,B,]2 | [B,,B,]6 | [E,G,]2 | [E,B,]3 [E,A,] [E,G,]2 [E,B,]2 | %7
w: ||||
 [E,E]3 [E,E] [E,E]2 [E,G,]2 | [A,,A,]2 [A,,C]2 [B,,B,]2 [B,,A,]2 | [E,G,]6 || [E,G,][E,A,] | %11
w: ||||
 [E,B,]2 [E,B,]>[E,B,] [E,B,]2 [E,C][E,B,] | [B,,B,]2 [B,,B,]>[B,,B,] [B,,B,]2 [B,,B,][B,,B,] | %13
w: ||
 [B,,F][B,,E][B,,D][B,,C] [B,,B,]2 [B,,E]>[B,,B,] | [E,B,]2 [E,E]>[E,E] [E,B,]2 [E,B,][E,B,] | %15
w: |* rolled a- way, * *|
 C2 C2 A,2 | [C,C][D,C] | [E,B,]2 (B,A,) [E,G,]2 [E,B,]2 | %18
w: |||
 [A,,A,]2 [A,,A,][A,,G,] [B,,F,][B,,B,] [B,,B,]>[B,,A,] | [E,G,]6 |] %20
w: ||
V:4
 x2 | x8 | x8 | x8 | x6 | x2 | x8 | x8 | x8 | x6 || x2 | x8 | x8 | x8 | x8 | %15
 (A,,B,,)(C,B,,) (A,,B,,) | x2 | x2 E,2 x4 | x8 | x6 |] %20

